_includes/icons/color-note.svg

<svg fill="#666" height="50" viewBox="0 0 48 48" width="50" xmlns="http://www.w3.org/2000/svg"><path d="m42 6h-36v36h27l9-9z" fill="#ffc107"/><path d="m40.5 32h-8.5v8.5z" fill="#fff8e1"/><g fill="#e28e07"><path d="m10 14h28v2h-28z"/><path d="m10 19h28v2h-28z"/><path d="m10 24h16v2h-16z"/></g></svg>

<svg xmlns="http://www.w3.org/2000/svg" viewBox="0 0 48 48" width="50" height="50" fill="#666"><path d="M 42 6 L 6 6 L 6 42 L 33 42 L 42 33 Z" fill="#ffc107"/><path d="M 40.5 32 L 32 32 L 32 40.5 Z" fill="#fff8e1"/><path d="M 10 14 L 38 14 L 38 16 L 10 16 Z" fill="#e28e07"/><path d="M 10 19 L 38 19 L 38 21 L 10 21 Z" fill="#e28e07"/><path d="M 10 24 L 26 24 L 26 26 L 10 26 Z" fill="#e28e07"/></svg>
